assets/Transgender flag/Flat/transgender_flag_flat.svg

<svg xmlns="http://www.w3.org/2000/svg" width="32" height="32" fill="none"><path fill="#83CBFF" fill-rule="evenodd" d="M3 6a1 1 0 0 0-1 1v3l2 1h24l2-1V7a1 1 0 0 0-1-1H3Zm26 20a1 1 0 0 0 1-1v-3l-2-1H4l-2 1v3a1 1 0 0 0 1 1h26Z" clip-rule="evenodd"/><path fill="#FFB2FF" fill-rule="evenodd" d="M30 10H2v4l2 1h24l2-1v-4ZM4 17l-2 1v4h28v-4l-2-1H4Z" clip-rule="evenodd"/><path fill="#F3EEF8" d="M2 14h28v4H2v-4Z"/></svg>

<svg width="32" height="32" viewBox="0 0 32 32" fill="none" xmlns="http://www.w3.org/2000/svg">
<path fill-rule="evenodd" clip-rule="evenodd" d="M3 6C2.44772 6 2 6.44772 2 7V10L4 11H28L30 10V7C30 6.44772 29.5523 6 29 6H3ZM29 26C29.5523 26 30 25.5523 30 25V22L28 21L4 21L2 22V25C2 25.5523 2.44772 26 3 26L29 26Z" fill="#83CBFF"/>
<path fill-rule="evenodd" clip-rule="evenodd" d="M30 10H2V14L4 15H28L30 14V10ZM4 17L2 18V22H30V18L28 17H4Z" fill="#FFB2FF"/>
<path d="M2 14H30V18H2V14Z" fill="#F3EEF8"/>
</svg>
